X:106
T:Heave Away, Me Johnnies (b)
M:6/8
L:1/8
Q:1/4=3D100
K:Bb
F|\
d2d dcB|c2c (cB)A|B2c (dc)B|F3 B2c|
(d3  dc)B|F2B (dc)B|c3  z2A|B3 z2B|
e2e dcB|c2c B2A|(GA)B (cB)G|F3 B2G|
F3  z2D |F2G B2c|d3 (cB)c|B3 z2z||
